src/images/icon-css.svg

<svg width="120" height="120" viewBox="0 0 120 120" fill="none" xmlns="http://www.w3.org/2000/svg">
<path fill-rule="evenodd" clip-rule="evenodd" d="M16 14H104L96.3966 101.532L60 111L23.9287 101.532L16 14Z" fill="#D1D2D6"/>
<path fill-rule="evenodd" clip-rule="evenodd" d="M34.4834 32.1582H85.6064V41.8582H45.0714L46.0403 53.9191H84.7707L82.6975 86.5043L60.0592 92.4055L39.0776 86.4689L37.572 72.2489L47.2963 71.2356L48.1118 78.9383L60.1651 82.3487L73.3839 78.9029L74.3563 63.6191H37.0107L34.4834 32.1582Z" fill="#F5F6F7"/>
</svg>

<svg xmlns="http://www.w3.org/2000/svg" fill="none" viewBox="0 0 120 120"><path fill="#D1D2D6" fill-rule="evenodd" d="M16 14h88l-7.6 87.5L60 111l-36-9.5L16 14z" clip-rule="evenodd"/><path fill="#F5F6F7" fill-rule="evenodd" d="M34.5 32.2h51.1v9.7H45.1l1 12h38.7l-2.1 32.6-22.6 6-21-6-1.5-14.3 9.7-1 .8 7.7 12 3.4L73.5 79l1-15.3H37l-2.5-31.4z" clip-rule="evenodd"/></svg>
